icons/svg/subway/subway_minsk.svg

<?xml version="1.0" encoding="UTF-8" standalone="no"?>
<svg
   xmlns:dc="http://purl.org/dc/elements/1.1/"
   xmlns:cc="http://creativecommons.org/ns#"
   xmlns:rdf="http://www.w3.org/1999/02/22-rdf-syntax-ns#"
   xmlns:svg="http://www.w3.org/2000/svg"
   xmlns="http://www.w3.org/2000/svg"
   xmlns:sodipodi="http://sodipodi.sourceforge.net/DTD/sodipodi-0.dtd"
   xmlns:inkscape="http://www.inkscape.org/namespaces/inkscape"
   width="16"
   height="16"
   id="svg2"
   version="1.1"
   inkscape:version="0.91 r"
   sodipodi:docname="subway_minsk.svg">
  <defs
     id="defs13">
    <linearGradient
       gradientTransform="matrix(0.08596979,0,0,0.08596979,0.67480439,1.9432845)"
       x1="87.101639"
       y1="121.69753"
       x2="87.260849"
       y2="1.2385538"
       id="l1"
       gradientUnits="userSpaceOnUse">
      <stop
         style="stop-color:#e92203;stop-opacity:1"
         offset="0"
         id="stop5" />
      <stop
         style="stop-color:#ff0000;stop-opacity:0.64628822"
         offset="1"
         id="stop7" />
    </linearGradient>
    <linearGradient
       gradientTransform="matrix(0.08400469,0,0,0.08400469,0.8422306,2.0814238)"
       x1="87.101639"
       y1="121.69753"
       x2="87.260849"
       y2="1.2385538"
       id="l1-2"
       gradientUnits="userSpaceOnUse">
      <stop
         style="stop-color:#e92203;stop-opacity:1"
         offset="0"
         id="stop5-8" />
      <stop
         style="stop-color:#ff0000;stop-opacity:0.64628822"
         offset="1"
         id="stop7-4" />
    </linearGradient>
  </defs>
  <sodipodi:namedview
     pagecolor="#ffffff"
     bordercolor="#666666"
     borderopacity="1"
     objecttolerance="10"
     gridtolerance="10"
     guidetolerance="10"
     inkscape:pageopacity="0"
     inkscape:pageshadow="2"
     inkscape:window-width="1920"
     inkscape:window-height="1004"
     id="namedview11"
     showgrid="true"
     inkscape:zoom="45.254834"
     inkscape:cx="12.487434"
     inkscape:cy="8.2263168"
     inkscape:window-x="1680"
     inkscape:window-y="0"
     inkscape:window-maximized="1"
     inkscape:current-layer="svg2"
     showguides="false"
     inkscape:snap-global="false">
    <sodipodi:guide
       position="0,0"
       orientation="0,580"
       id="guide2989" />
    <sodipodi:guide
       position="580,0"
       orientation="-580,0"
       id="guide2991" />
    <sodipodi:guide
       position="580,580"
       orientation="0,-580"
       id="guide2993" />
    <sodipodi:guide
       position="0,580"
       orientation="580,0"
       id="guide2995" />
    <sodipodi:guide
       position="0,0"
       orientation="0,580"
       id="guide2997" />
    <sodipodi:guide
       position="580,0"
       orientation="-580,0"
       id="guide2999" />
    <sodipodi:guide
       position="580,580"
       orientation="0,-580"
       id="guide3001" />
    <sodipodi:guide
       position="0,580"
       orientation="580,0"
       id="guide3003" />
    <inkscape:grid
       type="xygrid"
       id="grid3013"
       empspacing="5"
       visible="true"
       enabled="true"
       snapvisiblegridlinesonly="true" />
  </sodipodi:namedview>
  <metadata
     id="metadata2975">image/svg+xmlen<rdf:RDF>
  <cc:Work
     rdf:about="">
    <dc:format>image/svg+xml</dc:format>
    <dc:type
       rdf:resource="http://purl.org/dc/dcmitype/StillImage" />
    <dc:title />
  </cc:Work>
</rdf:RDF>
</metadata>
  <path
     sodipodi:type="inkscape:offset"
     inkscape:radius="0.078390546"
     inkscape:original="M 8 3.8769531 C 5.7292132 3.876953 3.8769531 5.7292134 3.8769531 8 C 3.8769531 10.270787 5.7292133 12.123047 8 12.123047 C 10.270787 12.123047 12.123047 10.270787 12.123047 8 C 12.123047 5.7292134 10.270787 3.876953 8 3.8769531 z "
     style="color:#000000;font-style:normal;font-variant:normal;font-weight:normal;font-stretch:normal;font-size:medium;line-height:normal;font-family:sans-serif;text-indent:0;text-align:start;text-decoration:none;text-decoration-line:none;text-decoration-style:solid;text-decoration-color:#000000;letter-spacing:normal;word-spacing:normal;text-transform:none;direction:ltr;block-progression:tb;writing-mode:lr-tb;baseline-shift:baseline;text-anchor:start;white-space:normal;clip-rule:nonzero;display:inline;overflow:visible;visibility:visible;opacity:1;isolation:auto;mix-blend-mode:normal;color-interpolation:sRGB;color-interpolation-filters:linearRGB;solid-color:#000000;solid-opacity:1;fill:#fefefe;fill-opacity:1;fill-rule:nonzero;stroke:none;stroke-width:0.53600001;stroke-linecap:butt;stroke-linejoin:miter;stroke-miterlimit:4;stroke-dasharray:none;stroke-dashoffset:0;stroke-opacity:1;color-rendering:auto;image-rendering:auto;shape-rendering:auto;text-rendering:auto;enable-background:accumulate"
     id="path4152"
     d="M 8,3.7988281 C 5.6865849,3.798828 3.7988281,5.6865851 3.7988281,8 c 0,2.313415 1.8877569,4.201172 4.2011719,4.201172 2.313415,0 4.201172,-1.887757 4.201172,-4.201172 C 12.201172,5.6865851 10.313415,3.798828 8,3.7988281 Z"
     transform="matrix(1.0736364,0,0,1.0736364,-0.58909128,-0.58909128)" />
  <circle
     r="3.8036423"
     cy="8"
     cx="8"
     id="path2848"
     style="fill:none;stroke:#b41a14;stroke-width:0.29665819;stroke-miterlimit:4;stroke-dasharray:none;stroke-opacity:1" />
  <path
     sodipodi:nodetypes="ccccccccccc"
     id="path3622"
     d="m 4.7330688,6.6932255 2.3842234,0 0.8834541,0.9081389 0.8434287,-0.9081389 2.422758,0 0,2.6252132 -2.3568573,0 -0.9042408,0.9287413 -0.9392415,-0.9287413 -2.3218551,0 z"
     style="color:#000000;display:inline;overflow:visible;visibility:visible;fill:#b41a14;fill-opacity:1;fill-rule:nonzero;stroke:#b41a14;stroke-width:0.13067724;stroke-opacity:1;marker:none;enable-background:accumulate"
     inkscape:connector-curvature="0" />
  <path
     style="color:#000000;display:inline;overflow:visible;visibility:visible;fill:none;stroke:#fefefe;stroke-width:0.13067724;stroke-opacity:1;marker:none;enable-background:accumulate"
     d="m 7.1210949,9.1900952 -2.259684,0 2.6e-6,-2.3685264 2.253989,0 0.8853464,0.9025486 0.8491222,-0.9025486 2.2887179,0 0,2.3685264 -2.2791509,0"
     id="path3055"
     inkscape:connector-curvature="0"
     sodipodi:nodetypes="ccccccccc" />
  <path
     style="color:#000000;display:inline;overflow:visible;visibility:visible;fill:none;fill-opacity:1;stroke:#fefefe;stroke-width:0.13067724;stroke-opacity:1;marker:none;enable-background:accumulate"
     d="M 8.8594381,9.1900952 7.9999817,10.065617 7.1195137,9.1900952 7.1210901,9.009391 7.9999963,9.8856796 8.8594332,9.0215532 l 0,0.168542"
     id="path3057"
     inkscape:connector-curvature="0"
     sodipodi:nodetypes="ccccccc" />
</svg>

<svg width="16" height="16" viewBox="0 0 16 16" fill="none" xmlns="http://www.w3.org/2000/svg">
<path d="M7.99997 3.48947C5.51621 3.48947 3.48944 5.51624 3.48944 8C3.48944 10.4838 5.51621 12.5105 7.99997 12.5105C10.4837 12.5105 12.5105 10.4838 12.5105 8C12.5105 5.51624 10.4837 3.48947 7.99997 3.48947Z" fill="#FEFEFE"/>
<path d="M7.99999 11.8036C10.1007 11.8036 11.8036 10.1007 11.8036 7.99999C11.8036 5.8993 10.1007 4.19635 7.99999 4.19635C5.8993 4.19635 4.19635 5.8993 4.19635 7.99999C4.19635 10.1007 5.8993 11.8036 7.99999 11.8036Z" stroke="#B41A14" stroke-width="0.296658"/>
<path d="M4.73309 6.69324H7.11732L8.00077 7.60138L8.8442 6.69324H11.267V9.31845H8.9101L8.00586 10.2472L7.06662 9.31845H4.74476L4.73309 6.69324Z" fill="#B41A14" stroke="#B41A14" stroke-width="0.130677"/>
<path d="M7.12107 9.19009H4.86139L4.86139 6.82156H7.11538L8.00073 7.72411L8.84985 6.82156H11.1386V9.19009H8.85942" stroke="#FEFEFE" stroke-width="0.130677"/>
<path d="M8.85943 9.1901L7.99998 10.0656L7.11951 9.1901L7.12108 9.0094L7.99999 9.88569L8.85943 9.02156V9.1901" stroke="#FEFEFE" stroke-width="0.130677"/>
</svg>
